X:140
T:
S:Efter Elisabet Olofsdotter, Flors i Burs.
M:2/4
L:1/8
K:D
A A G B|A A F2|A A G B|A2 F2|
w:Bis-sen dus-sen, läi-ten kinn! Mam-ma kum-mar snat in.
G G E G|F F D2|G G E G|F F D2|
w:Pap-pa gar pa hau-gen brou, kau-par ba-nä nöi-ä skou,
D E F G|A2 d> B|B A A C|E2 D z|]
w:nöi-ä skou mä spän-nar, så si-var ba-nä läŋ-gar.
